X: 12
T: Down Yonder
M: C
R: square
L:1/4
Z:SG
K: D
"D"FFFE-| EDE=F| ^FAFD- |Ddc=c| "G"BBBB |AGA^A| BdBG-| G3E|
"D"FDED |FDED| FAFA-| A3E| FDED| FDED| FAFA-| A3A|
"E"^GGGE |FE^GE| ^GGEG-| ^GEFG| "A"A2AA|A GFE| A2AA |AGFE|
"D"F4 |EDE=F| ^FAFD- |Ddc=c| "G"B4| AGA^A| BdBG-| G3E|
"D"FA=F^F-| FA2=F| ^FA=F^F-| FA2^A| "E"Bcde-| "A7"ecA2| "D"d4- |d4|]
